images/master-pain-03.svg

<svg fill="none" height="48" viewBox="0 0 48 48" width="48" xmlns="http://www.w3.org/2000/svg"><g stroke="#ff512f" stroke-linecap="round" stroke-linejoin="round" stroke-width="4"><path d="m12 4-6 8v28c0 1.0609.42143 2.0783 1.17157 2.8284.75015.7502 1.76756 1.1716 2.82843 1.1716h28c1.0609 0 2.0783-.4214 2.8284-1.1716.7502-.7501 1.1716-1.7675 1.1716-2.8284v-28l-6-8z"/><path d="m6 12h36"/><path d="m32 20c0 2.1217-.8429 4.1566-2.3431 5.6569-1.5003 1.5002-3.5352 2.3431-5.6569 2.3431s-4.1566-.8429-5.6569-2.3431c-1.5002-1.5003-2.3431-3.5352-2.3431-5.6569"/></g></svg>

<svg width="48" height="48" viewBox="0 0 48 48" fill="none" xmlns="http://www.w3.org/2000/svg">
<path d="M12 4L6 12V40C6 41.0609 6.42143 42.0783 7.17157 42.8284C7.92172 43.5786 8.93913 44 10 44H38C39.0609 44 40.0783 43.5786 40.8284 42.8284C41.5786 42.0783 42 41.0609 42 40V12L36 4H12Z" stroke="#FF512F" stroke-width="4" stroke-linecap="round" stroke-linejoin="round"/>
<path d="M6 12H42" stroke="#FF512F" stroke-width="4" stroke-linecap="round" stroke-linejoin="round"/>
<path d="M32 20C32 22.1217 31.1571 24.1566 29.6569 25.6569C28.1566 27.1571 26.1217 28 24 28C21.8783 28 19.8434 27.1571 18.3431 25.6569C16.8429 24.1566 16 22.1217 16 20" stroke="#FF512F" stroke-width="4" stroke-linecap="round" stroke-linejoin="round"/>
</svg>
